public/icons/cypress-icon.svg

<svg width="129" height="128" viewBox="0 0 129 128" fill="none" xmlns="http://www.w3.org/2000/svg">
<g clip-path="url(#clip0_67_22)">
<mask id="mask0_67_22" style="mask-type:luminance" maskUnits="userSpaceOnUse" x="0" y="0" width="129" height="128">
<path d="M0.0664062 0H128.066V128H0.0664062V0Z" fill="white"/>
</mask>
<g mask="url(#mask0_67_22)">
<path d="M98.0664 0H30.0664C13.4979 0 0.0664062 13.4315 0.0664062 30V98C0.0664062 114.568 13.4979 128 30.0664 128H98.0664C114.635 128 128.066 114.568 128.066 98V30C128.066 13.4315 114.635 0 98.0664 0Z" fill="#F4F2ED"/>
<path d="M50.9959 54.84C54.4849 54.84 57.3199 56.7055 58.7734 59.9455L58.8824 60.2005L64.7339 58.2075L64.6159 57.907C62.3534 52.3735 57.1289 48.942 50.9959 48.942C46.6799 48.942 43.1724 50.3255 40.2739 53.174C37.3939 56.005 35.9399 59.5635 35.9399 63.75C35.9399 67.9095 37.4029 71.4495 40.2739 74.271C43.1724 77.12 46.6799 78.503 50.9959 78.503C57.1289 78.503 62.3444 75.063 64.6159 69.5385L64.7339 69.238L58.8734 67.245L58.7734 67.509C57.4649 70.7035 54.5574 72.6055 50.9959 72.6055C48.5699 72.6055 46.5159 71.759 44.8989 70.0845C43.2539 68.3915 42.4274 66.253 42.4274 63.75C42.4274 61.229 43.2364 59.1355 44.8989 57.361C46.5254 55.686 48.5699 54.84 50.9959 54.84Z" fill="#1B1E2E"/>
<path d="M76.4008 105.042L74.6562 99.2815C90.3933 94.494 100.97 80.214 100.97 63.75C100.97 59.2085 100.161 54.767 98.5618 50.562L104.177 48.4235C106.04 53.32 106.985 58.471 106.985 63.759C106.976 82.881 94.6913 99.4725 76.4008 105.042Z" fill="url(#paint0_linear_67_22)"/>
<path d="M99.3435 52.865C94.537 37.156 80.2625 26.6075 63.8165 26.6075C61.581 26.6075 59.346 26.8075 57.1655 27.199L56.1025 21.274C58.6483 20.8154 61.2298 20.584 63.8165 20.5825C82.9155 20.5825 99.498 32.842 105.086 51.09L99.3435 52.865Z" fill="#69D3A7"/>
<path d="M23.4192 78.9675C21.5837 74.1075 20.6567 68.9835 20.6567 63.75C20.6567 41.452 37.3667 22.985 59.5277 20.801L60.1182 26.7895C41.0462 28.6735 26.6632 44.5645 26.6632 63.75C26.6632 68.2555 27.4622 72.6695 29.0342 76.847L23.4192 78.9675Z" fill="url(#paint1_linear_67_22)"/>
<path d="M87.6405 49.4885L79.3085 70.6395L70.913 49.4885H64.0435L75.8195 78.3575L67.242 99.1995L73.248 100.401L94.128 49.4885H87.6405Z" fill="#1B1E2E"/>
<path d="M68.3228 96.5785L67.0598 99.6455C66.7693 100.347 66.1058 100.829 65.3608 100.856C64.8428 100.874 64.3343 100.893 63.8073 100.893C47.3158 100.893 32.6323 89.8345 28.0983 73.998L22.3198 75.6545C27.5898 94.048 44.6448 106.9 63.7983 106.909H63.8073C64.4068 106.909 65.0063 106.9 65.6063 106.872C68.6863 106.745 71.4393 104.806 72.6208 101.939L74.3288 97.78L68.3228 96.5785Z" fill="url(#paint2_linear_67_22)"/>
</g>
</g>
<defs>
<linearGradient id="paint0_linear_67_22" x1="110.291" y1="64.023" x2="71.7173" y2="88.957" gradientUnits="userSpaceOnUse">
<stop offset="0.081" stop-color="#69D3A7"/>
<stop offset="1" stop-color="#69D3A7" stop-opacity="0"/>
</linearGradient>
<linearGradient id="paint1_linear_67_22" x1="49.4492" y1="21.1285" x2="25.1737" y2="72.5295" gradientUnits="userSpaceOnUse">
<stop stop-color="#69D3A7"/>
<stop offset="0.823" stop-color="#2AB586"/>
<stop offset="1" stop-color="#1CAE7F"/>
</linearGradient>
<linearGradient id="paint2_linear_67_22" x1="20.5958" y1="83.513" x2="84.0968" y2="103.409" gradientUnits="userSpaceOnUse">
<stop offset="0.077" stop-color="#1CAE7F"/>
<stop offset="0.164" stop-color="#1CA379"/>
<stop offset="0.316" stop-color="#1C8568"/>
<stop offset="0.516" stop-color="#1B554D"/>
<stop offset="0.719" stop-color="#1B1E2E"/>
</linearGradient>
<clipPath id="clip0_67_22">
<rect width="128" height="128" fill="white" transform="translate(0.0664062)"/>
</clipPath>
</defs>
</svg>

<svg xmlns="http://www.w3.org/2000/svg" width="129" height="128" fill="none"><g clip-path="url(#a)"><mask id="b" width="129" height="128" x="0" y="0" maskUnits="userSpaceOnUse" style="mask-type:luminance"><path fill="#fff" d="M.066 0h128v128h-128V0Z"/></mask><g mask="url(#b)"><path fill="#F4F2ED" d="M98.066 0h-68c-16.568 0-30 13.431-30 30v68c0 16.568 13.432 30 30 30h68c16.569 0 30-13.432 30-30V30c0-16.569-13.431-30-30-30Z"/><path fill="#1B1E2E" d="M50.996 54.84c3.489 0 6.324 1.865 7.777 5.105l.11.255 5.85-1.992-.117-.301c-2.263-5.533-7.487-8.965-13.62-8.965-4.316 0-7.824 1.383-10.722 4.232-2.88 2.831-4.334 6.39-4.334 10.576 0 4.16 1.463 7.7 4.334 10.521 2.898 2.849 6.406 4.232 10.722 4.232 6.133 0 11.348-3.44 13.62-8.965l.118-.3-5.86-1.993-.1.264c-1.31 3.195-4.217 5.097-7.778 5.097-2.426 0-4.48-.847-6.097-2.521-1.645-1.694-2.472-3.832-2.472-6.335 0-2.521.81-4.614 2.472-6.389 1.626-1.675 3.67-2.521 6.097-2.521Z"/><path fill="url(#c)" d="m76.4 105.042-1.744-5.76c15.737-4.788 26.314-19.068 26.314-35.532 0-4.541-.809-8.983-2.408-13.188l5.615-2.139a42.93 42.93 0 0 1 2.808 15.336c-.009 19.122-12.294 35.713-30.584 41.283Z"/><path fill="#69D3A7" d="M99.344 52.865c-4.807-15.709-19.081-26.258-35.527-26.258-2.236 0-4.471.2-6.651.592l-1.063-5.925a43.654 43.654 0 0 1 7.713-.692c19.1 0 35.682 12.26 41.27 30.508l-5.742 1.775Z"/><path fill="url(#d)" d="M23.42 78.968a42.928 42.928 0 0 1-2.763-15.218c0-22.298 16.71-40.765 38.87-42.949l.591 5.989c-19.072 1.884-33.455 17.775-33.455 36.96 0 4.505.8 8.92 2.371 13.097l-5.615 2.12Z"/><path fill="#1B1E2E" d="m87.64 49.489-8.332 21.15-8.395-21.15h-6.87L75.82 78.358l-8.577 20.841 6.006 1.202 20.88-50.912h-6.487Z"/><path fill="url(#e)" d="m68.323 96.579-1.263 3.067c-.29.701-.954 1.183-1.7 1.21-.517.018-1.026.037-1.553.037-16.491 0-31.175-11.058-35.709-26.895l-5.778 1.656c5.27 18.394 22.325 31.246 41.478 31.255h.01c.599 0 1.198-.009 1.798-.037 3.08-.127 5.833-2.066 7.015-4.933l1.708-4.159-6.006-1.201Z"/></g></g><defs><linearGradient id="c" x1="110.291" x2="71.717" y1="64.023" y2="88.957" gradientUnits="userSpaceOnUse"><stop offset=".081" stop-color="#69D3A7"/><stop offset="1" stop-color="#69D3A7" stop-opacity="0"/></linearGradient><linearGradient id="d" x1="49.449" x2="25.174" y1="21.128" y2="72.529" gradientUnits="userSpaceOnUse"><stop stop-color="#69D3A7"/><stop offset=".823" stop-color="#2AB586"/><stop offset="1" stop-color="#1CAE7F"/></linearGradient><linearGradient id="e" x1="20.596" x2="84.097" y1="83.513" y2="103.409" gradientUnits="userSpaceOnUse"><stop offset=".077" stop-color="#1CAE7F"/><stop offset=".164" stop-color="#1CA379"/><stop offset=".316" stop-color="#1C8568"/><stop offset=".516" stop-color="#1B554D"/><stop offset=".719" stop-color="#1B1E2E"/></linearGradient><clipPath id="a"><path fill="#fff" d="M.066 0h128v128h-128z"/></clipPath></defs></svg>
